public/img/PROJECT_VIEWS/Idea_ICON.svg

<?xml version="1.0" encoding="UTF-8"?>
<svg width="11px" height="14px" viewBox="0 0 11 14" version="1.1" xmlns="http://www.w3.org/2000/svg" xmlns:xlink="http://www.w3.org/1999/xlink">
    <!-- Generator: Sketch 42 (36781) - http://www.bohemiancoding.com/sketch -->
    <title>Idea_ICON</title>
    <desc>Created with Sketch.</desc>
    <defs></defs>
    <g id="Page-1" stroke="none" stroke-width="1" fill="none" fill-rule="evenodd">
        <g id="Home" transform="translate(-466.000000, -385.000000)" fill="#00A9CD">
            <g id="Views" transform="translate(42.000000, 220.000000)">
                <g id="View-Copy" transform="translate(242.000000, 0.000000)">
                    <g id="Idea_ICON" transform="translate(182.000000, 165.000000)">
                        <path d="M2.2132,10.9959 C2.2072,11.1859 2.2192,11.3639 2.2502,11.5479 C2.4592,12.7679 3.4092,13.7239 4.6292,13.9509 C4.8002,13.9819 5.0342,13.9999 5.2052,13.9999 C6.8302,13.9999 8.2162,12.6879 8.2162,11.0629 L8.2162,10.9959 C7.2162,11.3639 6.2052,11.5719 5.2122,11.5719 C4.2182,11.5719 3.1272,11.3639 2.2132,10.9959" id="Fill-1"></path>
                        <path d="M8.8226,1.5668 C6.8236,-0.4622 3.5686,-0.4872 1.5386,1.5058 C-0.4904,3.4978 -0.5144,6.7598 1.4776,8.7888 C1.8026,9.1388 2.0356,9.5678 2.1456,10.0268 C3.0106,10.4498 4.0646,10.7138 5.1506,10.7138 C6.2536,10.7138 7.3326,10.4438 8.2096,10.0028 C8.3436,9.4938 8.6076,9.0218 8.9696,8.6298 C10.7966,6.6058 10.7356,3.5098 8.8226,1.5668" id="Fill-3"></path>
                    </g>
                </g>
            </g>
        </g>
    </g>
</svg>

<svg width="11" height="14" viewBox="0 0 11 14" xmlns="http://www.w3.org/2000/svg"><title>Idea_ICON</title><g fill="#00A9CD" fill-rule="evenodd"><path d="M2.213 10.996c-.006.19.006.368.037.552A2.955 2.955 0 0 0 5.205 14c1.625 0 3.011-1.312 3.011-2.937v-.067c-1 .368-2.01.576-3.004.576a8.327 8.327 0 0 1-2.999-.576M8.823 1.567a5.152 5.152 0 0 0-7.345 7.222c.325.35.558.779.668 1.238a6.924 6.924 0 0 0 6.064-.024c.134-.51.398-.981.76-1.373a5.148 5.148 0 0 0-.147-7.063"/></g></svg>
